X:4050
L:1/8
M:4/4
K:F
 fg | f2 e2 d2 cA | c3 A d2 cA | F2 (3GAG F2 F2 | F6 || A/G/ | F2 FG Ac de | f2 g2 a2 g2 | 
 f2 e2 d2 cA | A6 AG | F2 FG Acde | f2 g2 a3 g | f2 e2 d2 cA | G6 AG | F2 f2 d2 cA | c3 A dcAG | 
 F2 (3GAG F2 F2 | F6 ||

